icons/triangle-arrow-left-outline.svg

<svg xmlns="http://www.w3.org/2000/svg" width="24" height="24" viewBox="0 0 24 24">
  <path d="M9.37135227,3.70432092 C10.1698214,2.25255887 11.9939942,1.72296031 13.4457562,2.52142944 C13.9442354,2.79559297 14.3544842,3.20584177 14.6286477,3.70432092 L14.6286477,3.70432092 L22.2461053,17.5542438 C23.0445744,19.0060058 22.5149759,20.8301786 21.0632138,21.6286477 C20.6202789,21.8722619 20.1229665,22 19.6174576,22 L19.6174576,22 L4.38254244,22 C2.72568819,22 1.38254244,20.6568542 1.38254244,19 C1.38254244,18.4944911 1.5102805,17.9971787 1.75389472,17.5542438 L1.75389472,17.5542438 Z M12.3764912,4.2235543 C11.9128771,4.03449217 11.3709293,4.2188035 11.1237841,4.66815842 L11.1237841,4.66815842 L3.50632653,18.5180813 C3.42512179,18.6657262 3.38254244,18.831497 3.38254244,19 C3.38254244,19.5522847 3.83025769,20 4.38254244,20 L4.38254244,20 L19.6174576,20 C19.7859605,20 19.9517313,19.9574206 20.0993763,19.8762159 C20.583297,19.6100595 20.7598298,19.0020019 20.4936735,18.5180813 L20.4936735,18.5180813 L12.8762159,4.66815842 C12.7848281,4.5019987 12.6480785,4.3652491 12.4819187,4.27386126 L12.4819187,4.27386126 Z M8.00154244,14.0585191 L8.00254244,14.0585191 L8.00054244,14.0185191 L8,14 L8.00018018,13.980824 L8.0017331,13.9409686 C8.00232561,13.9308872 8.00307004,13.9208131 8.00399798,13.909968 C8.00576612,13.890153 8.00811223,13.8705042 8.0110178,13.8515331 C8.01362808,13.834051 8.01670217,13.8166247 8.02016515,13.7992059 C8.0246398,13.7772539 8.02983363,13.7555635 8.03584514,13.734007 C8.04009773,13.7185367 8.04472872,13.7031487 8.04954668,13.6882636 C8.05612249,13.6682023 8.06331574,13.6484208 8.07122549,13.628664 C8.07819642,13.6112044 8.08567905,13.5939015 8.09365378,13.5769009 C8.10337664,13.5561086 8.11379392,13.5357061 8.12467117,13.5159379 C8.13149883,13.5036056 8.13860692,13.4913869 8.14606743,13.4793398 C8.1617187,13.453725 8.17849009,13.4288693 8.19633458,13.4046934 L8.19633458,13.4046934 L8.21278596,13.3832499 C8.21507113,13.3803372 8.2173721,13.3774376 8.21968877,13.374551 L8.21954244,13.3745191 L8.24220802,13.347434 L8.24220802,13.347434 L8.29289322,13.2928932 L11.2928932,10.2928932 L11.3871006,10.2097046 C11.7793918,9.90467972 12.3466228,9.93240926 12.7071068,10.2928932 C13.0976311,10.6834175 13.0976311,11.3165825 12.7071068,11.7071068 L12.7071068,11.7071068 L11.415,13 L15,13 L15.1166211,13.0067277 C15.6139598,13.0644928 16,13.4871642 16,14 C16,14.5522847 15.5522847,15 15,15 L15,15 L11.415,15 L12.7071068,16.2928932 L12.7902954,16.3871006 C13.0953203,16.7793918 13.0675907,17.3466228 12.7071068,17.7071068 C12.3165825,18.0976311 11.6834175,18.0976311 11.2928932,17.7071068 L11.2928932,17.7071068 L8.29289322,14.7071068 L8.21968877,14.625449 C8.2173721,14.6225624 8.21507113,14.6196628 8.20970461,14.6128994 L8.20970461,14.6128994 L8.19631351,14.5951593 C8.17849009,14.5711307 8.1617187,14.546275 8.14599545,14.5207088 C8.13860692,14.5086131 8.13149883,14.4963944 8.12487577,14.484277 C8.11379392,14.4642939 8.10337664,14.4438914 8.09367336,14.4232215 C8.08567905,14.4060985 8.07819642,14.3887956 8.07110396,14.3710585 C8.06331574,14.3515792 8.05612249,14.3317977 8.04973809,14.3121425 C8.04472872,14.2968513 8.04009773,14.2814633 8.03572097,14.2658396 C8.02983363,14.2444365 8.0246398,14.2227461 8.02024007,14.2007258 C8.01670217,14.1833753 8.01362808,14.165949 8.01101934,14.1489612 C8.00376119,14.1003621 8,14.0506203 8,14 L8.00154244,14.0585191 Z"/>
</svg>

<svg xmlns="http://www.w3.org/2000/svg" viewBox="0 0 24 24">
  <path d="M9.37 3.7a3 3 0 0 1 5.26 0l7.62 13.85A3 3 0 0 1 19.62 22H4.38a3 3 0 0 1-2.63-4.45zm3 .52a1 1 0 0 0-1.25.45L3.51 18.52A1 1 0 0 0 4.38 20h15.24a1 1 0 0 0 .87-1.48L12.88 4.67a1 1 0 0 0-.4-.4zM8 14.06v-.12a1.15 1.15 0 0 1 .05-.25.99.99 0 0 1 .15-.29l.01-.02h.01l.02-.03.05-.06 3-3 .1-.08a1 1 0 0 1 1.32 1.5L11.4 13h3.71a1 1 0 0 1-.12 2H11.4l1.3 1.3.08.09a1 1 0 0 1-1.5 1.32l-3-3-.07-.08-.01-.02-.01-.01a1.04 1.04 0 0 1-.19-.45A1 1 0 0 1 8 14v.06z"/>
</svg>
